X: 416
T: Zanerren changqu yiduidui
L: 1/16
M: 2/4
K: Db
B2 A2 B e d B [I:setbarnb 1]| 
A2 A d B2 A F | 
E2 D2 E> d G F | 
E8 | 
B2 A2 B e d B | 
A2 A d B2 A F | 
E2 D2 E> B A F | 
A8 |]

@@@ Tune index: 9290
